X:400
T: Little Round Hill
S: B.Breathnach: "Ceol Rince na hEireann" II/89 (gan ainm)
Z: B.Black
L: 1/8
M: 6/8
R: jig
K: D
A2c e2c|d2f a2f|efe cBA|B2c d2B|
A2c e2c|d2f a2f|efe dcB|A3 A3 :|
a3 a2f|g3 g2e|fdf a2f|e3 e2c|
A2c e2c|d2f a2f|efe dcB|A3 A3 :|

